client/resources/images/wb-otherprojects-beta-ltr.svg

<svg xmlns="http://www.w3.org/2000/svg" width="264" height="162" viewBox="0 0 264 162">
  <g fill="none" fill-rule="evenodd">
    <path d="M24.833 151.362l-11.467 9.995L.5 151.75V.5h263v151.75l-9 6.704V42.5h-39v112.6l-4.393-3.73-7.607 5.33V42.5h-155v110.85l-9.75 8.03-13.917-10.018z" fill="#FFF"/>
    <path d="M263 1v150.998l-8 5.96V42h-40v112.02l-3.274-2.78-.59-.5-.632.44L204 155.74V42H48v111.1l-9.257 7.66-13.295-9.57-.644-.464-.598.52-10.864 9.47L1 151.5V1h262zm1-1H0v152l13.39 10 11.474-10 13.89 10L49 153.6V43h154v114.66l8.078-5.66 4.922 4.18V43h38v116.95l10-7.45V0z" fill="#E5E5E5"/>
    <path d="M203 157.66V43H49v110.6l2.145-1.6L63.7 162l13.81-10 14.228 10 12.972-10 12.973 10 13.81-10 12.137 10 13.39-10 14.23 10 12.972-10 12.974 10 5.804-4.34zM11 36c0-7.732 6.268-14 14-14s14 6.268 14 14-6.268 14-14 14-14-6.268-14-14c0 0 0 7.732 0 0zM254 159.95V43h-38v113.18l7.55 5.82 13.812-10 13.89 10 2.748-2.05zM38 99V72H13v27h25zM38 136v-16H13v16h25z" fill="#E5E5E5"/>
    <path d="M38 117v-16H13v16h25z" fill="#36c"/>
    <path d="M233 5h26v6h-26V5zM142 6v4H50V6h92zm1-1H49v6h94V5zM9 5h32v6H9z" fill="#E5E5E5"/>
    <path d="M2 15h260" stroke="#E5E5E5" fill="#E5E5E5"/>
    <path fill="#E5E5E5" d="M52 7h2v2h-2zM38 59v-5H13v5h25z"/>
    <path d="M228.51 5v6H216V5h12.51zM212.51 5v6H200V5h12.51zM196.51 5v6H184V5h12.51z" fill="#D8D8D8"/>
    <g fill="#FFF">
      <path d="M35.768 102.732v4.243l-4.243-4.243"/>
      <path d="M33.293 103.793l1.414 1.414-1.768 1.768-1.415-1.414z"/>
    </g>
    <g fill="#FFF">
      <path d="M35.768 114.268h-4.243l4.243-4.243"/>
      <path d="M34.707 111.793l-1.414 1.414-1.768-1.768 1.414-1.415z"/>
    </g>
    <g fill="#FFF">
      <path d="M15.232 114.268v-4.243l4.243 4.243"/>
      <path d="M17.707 113.207l-1.414-1.414 1.768-1.768 1.415 1.414z"/>
    </g>
    <g fill="#FFF">
      <path d="M15.232 102.732h4.243l-4.243 4.243"/>
      <path d="M16.293 105.207l1.414-1.414 1.768 1.768-1.414 1.415z"/>
    </g>
    <circle fill="#FFF" cx="25.5" cy="108.5" r="3.5"/>
  </g>
</svg>

<?xml version="1.0" encoding="UTF-8" standalone="no"?>
<svg xmlns="http://www.w3.org/2000/svg" xmlns:xlink="http://www.w3.org/1999/xlink" width="264px" height="162px" viewBox="0 0 264 162" version="1.1">
    <!-- Generator: Sketch 3.0.1 (7597) - http://www.bohemiancoding.com/sketch -->
    <g stroke="none" stroke-width="1" fill="none" fill-rule="evenodd">
        <g>
            <path d="M24.833 151.362 L13.366 161.357 L0.5 151.749 L0.5 0.5 L263.5 0.5 L263.5 152.249 L254.5 158.954 L254.5 42.5 L215.5 42.5 L215.5 155.1 L211.107 151.369 L203.5 156.699 L203.5 42.5 L48.5 42.5 L48.5 153.349 L38.749 161.38 L24.833 151.362 Z" fill="#FFFFFF"/>
            <path d="M263 1 L263 151.998 L255 157.958 L255 43 L255 42 L254 42 L216 42 L215 42 L215 43 L215 154.019 L211.726 151.24 L211.137 150.741 L210.504 151.181 L204 155.738 L204 43 L204 42 L203 42 L49 42 L48 42 L48 43 L48 153.099 L38.743 160.76 L25.448 151.191 L24.804 150.726 L24.206 151.247 L13.342 160.717 L1 151.499 L1 1 L263 1 L263 1 Z M264 0 L0 0 L0 152 L13.391 162 L24.864 152 L38.755 162 L49 153.6 L49 43 L203 43 L203 157.66 L211.078 152 L216 156.18 L216 43 L254 43 L254 159.95 L264 152.5 L264 0 L264 0 L264 0 L264 0 Z" fill="#E5E5E5"/>
        </g>
        <path d="M203 157.66 L203 43 L49 43 L49 153.6 L51.145 152 L63.7 162 L77.509 152 L91.738 162 L104.71 152 L117.683 162 L131.494 152 L143.63 162 L157.021 152 L171.25 162 L184.222 152 L197.196 162 L203 157.66 L203 157.66 L203 157.66 L203 157.66 Z" fill="#E5E5E5"/>
        <path d="M11 36 C11 28.268 17.268 22 25 22 C32.732 22 39 28.268 39 36 C39 43.732 32.732 50 25 50 C17.268 50 11 43.732 11 36 C11 36 11 43.732 11 36 L11 36 L11 36 Z" fill="#E5E5E5"/>
        <path d="M254 159.95 L254 43 L216 43 L216 156.18 L223.551 162 L237.362 152 L251.253 162 L254 159.95 L254 159.95 L254 159.95 L254 159.95 Z" fill="#E5E5E5"/>
        <path d="M38 99 L38 72 L13 72 L13 99 L38 99 L38 99 L38 99 L38 99 Z" fill="#E5E5E5"/>
        <path d="M38 136 L38 120 L13 120 L13 136 L38 136 L38 136 L38 136 L38 136 Z" fill="#E5E5E5"/>
        <path d="M38 117 L38 101 L13 101 L13 117 L38 117 L38 117 L38 117 L38 117 Z" fill="#347BFF"/>
        <path d="M233 5 L259 5 L259 11 L233 11 L233 5 L233 5 L233 5 L233 5 Z" fill="#E5E5E5"/>
        <path d="M142 6 L142 10 L50 10 L50 6 L142 6 L142 6 Z M143 5 L49 5 L49 11 L143 11 L143 5 L143 5 L143 5 L143 5 Z" fill="#E5E5E5"/>
        <rect fill="#E5E5E5" x="9" y="5" width="32" height="6"/>
        <path d="M2 15 L262 15" stroke="#E5E5E5" fill="#E5E5E5"/>
        <rect fill="#E5E5E5" x="52" y="7" width="2" height="2"/>
        <path d="M38 59 L38 54 L13 54 L13 59 L38 59 L38 59 L38 59 L38 59 Z" fill="#E5E5E5"/>
        <path d="M228.51 5 L228.51 11 L216 11 L216 5 L228.51 5 Z" fill="#D8D8D8"/>
        <path d="M212.51 5 L212.51 11 L200 11 L200 5 L212.51 5 Z" fill="#D8D8D8"/>
        <path d="M196.51 5 L196.51 11 L184 11 L184 5 L196.51 5 Z" fill="#D8D8D8"/>
        <g transform="translate(34.000000, 104.500000) rotate(-315.000000) translate(-34.000000, -104.500000) translate(31.000000, 102.000000)" fill="#FFFFFF">
            <polygon points="3,0 6,3 0,3"/>
            <rect x="2" y="2.5" width="2" height="2.5"/>
        </g>
        <g transform="translate(34.000000, 112.500000) rotate(-225.000000) translate(-34.000000, -112.500000) translate(31.000000, 110.000000)" fill="#FFFFFF">
            <polygon points="3,0 6,3 0,3"/>
            <rect x="2" y="2.5" width="2" height="2.5"/>
        </g>
        <g transform="translate(17.000000, 112.500000) rotate(-135.000000) translate(-17.000000, -112.500000) translate(14.000000, 110.000000)" fill="#FFFFFF">
            <polygon points="3,0 6,3 0,3"/>
            <rect x="2" y="2.5" width="2" height="2.5"/>
        </g>
        <g transform="translate(17.000000, 104.500000) rotate(-45.000000) translate(-17.000000, -104.500000) translate(14.000000, 102.000000)" fill="#FFFFFF">
            <polygon points="3,0 6,3 0,3"/>
            <rect x="2" y="2.5" width="2" height="2.5"/>
        </g>
        <circle fill="#FFFFFF" cx="25.5" cy="108.5" r="3.5"/>
    </g>
</svg>
